X:1
T:Thy Hand Upholdeth Me
T:Ira David Sankey
T:Thy Hand Upholdeth Me
T:Public Domain
T:Public Domain
C:Ira David Sankey
Z:Public Domain
%%score ( 1 2 ) ( 3 4 )
L:1/8
M:4/4
K:Ab
V:1 treble 
V:2 treble 
V:3 bass 
V:4 bass 
V:1
 [CE]2 | [EA]2 [EG]2 [EA]2 [GB]2 | [Ac]3 [EB] [EA]2 A2 | [FB]2 [FB]2 [EA]2 [EG]2 | [EA]6 [CE]2 | %5
w: 1.~I|know Thy hand up-|hold- eth me, My|ior and my God;|And step|
w: 2.~I|know Thy hand up-|hold- eth me, When|and dan- ger near|Would tempt|
w: 3.~I|know Thy hand up-|hold- eth me, And|in safe- ty keep|My trust-|
w: 4.~I|know Thy hand up-|hold- eth me, And|my soul de- fend;|Suf- fi-|
 [EA]2 [EG]2 [EA]2 [GB]2 | [Ac]3 [EB] [EA]2 [EA]2 | [FB]2 [FB]2 [EA]2 [DG]2 | [CA]6 || %9
w: by step I’ll fol-|low Thee Wher- e’er|Thy feet have trod.||
w: me from the nar-|row way, Or fill|my heart with fear.||
w: ing heart, though I|may pass Through wa-|ters dark and deep.||
w: cient is Thy grace,|O Lord, To keep|me to the end.||
"^Refrain" [Ac]2 | [Ae]2 [Ac]2 [Af]2 [Ae]2 | [Ge]3 [Gd] [GB]2 [Bd]2 | [Ac]2 [_Ge]2 [Fd]2 [FB]2 | %13
w: ||||
w: ||||
w: ||||
w: ||||
 (A4 G2) E2 | [EA]2 [EG]2 [EA]2 [GB]2 | [Ac]3 [EB] [EA]2 A2 | [FB]2 [Bd]2 [Ac]2 [EB]2 | [EA]6 |] %18
w: |||||
w: |||||
w: |||||
w: |||||
V:2
 x2 | x8 | x6 A2 | x8 | x8 | x8 | x8 | x8 | x6 || x2 | x8 | x8 | x8 | E6 E2 | x8 | x6 A2 | x8 | %17
w: ||Sav-|||||||||||||||
w: ||doubt|||||||||||||||
w: ||will|||||||||||||||
w: ||will|||||||||||||||
 x6 |] %18
w: |
w: |
w: |
w: |
V:3
 [A,,A,]2 | [A,,C]2 [B,,D]2 [C,E]2 [E,E]2 | [A,E]3 [A,D] [A,C]2 [C,E]2 | %3
w: ~|~ ~ ~ ~|~ ~ ~ ~|
 [D,D]2 [D,D]2 [E,C]2 [E,B,]2 | [A,,C]6 [A,,A,]2 | [A,,C]2 [B,,D]2 [C,E]2 [E,E]2 | %6
w: ~ ~ ~ ~|~ ~|~ ~ ~ ~|
 [A,E]3 [A,D] [A,C]2 [C,E]2 | [D,D]2 [D,D]2 [E,C]2 [E,B,]2 | [A,,A,]6 || [A,E]2 | %10
w: ~ ~ ~ ~|~ ~ ~ ~|~|I|
 [A,C]2 [A,E]2 [A,D]2 [A,C]2 | [E,B,]3 [E,B,] [E,E]2 [G,E]2 | [A,E]2 [A,C]2 [D,B,]2 [D,D]2 | %13
w: know in whom I|have be- lieved, And,|know- ing, I am|
 (C4 B,2) [G,D]2 | [A,C]2 [E,B,]2 [C,E]2 [E,E]2 | [A,E]3 [A,D] [A,C]2 [C,E]2 | %16
w: blest; * Thou|the an- chor of|my soul— In Thee|
 [D,D]2 [B,,F]2 [E,E]2 [E,D]2 | [A,,C]6 |] %18
w: my hope shall rest.||
V:4
 x2 | x8 | x8 | x8 | x8 | x8 | x8 | x8 | x6 || x2 | x8 | x8 | x8 | E,6 x2 | x8 | x8 | x8 | x6 |] %18
w: |||||||||||||art|||||

